X:1
T:Title
%%score { ( 1 3 ) | ( 2 4 ) }
L:1/8
M:6/8
K:Ab
V:1 treble nm="Grand Piano"
V:3 treble 
V:2 bass 
V:4 bass 
V:1
 z3 z2[Q:1/4=95] [CE] | [CE][Ec][Ec] [Ec]2 [CE] | [DF]2 [Fd] [Fd]2 [Fd] | c2 e d2 c | %4
[M:5/8] B- B3[K:bass] z |[M:1/8][K:treble] [DE] |[M:3/4] [CE][Ec] [Ec] [Ec]2 [CE] | %7
[M:7/8] [DF]2 [Fd] [Fd]3 [Fd] |[M:3/4] c2 ed cB |[M:5/8] [CA]- [CA]3 z |[M:1/8] [GB] | %11
[M:3/4] [GB][_G=A] [=GB] [Ge]2 [GB] | [_G=d]2 [Gc] [=GB]2 [EB] | [=DB]2 [DF] [DB]2 [DA] | %14
[M:5/8] [EG]- [EG]3 z |[M:1/8] [GB] |[M:3/4] [GB][_G=A] [=GB] [Ge]2 [GB] | %17
 [_G=d]2 [Gc] [=GB]2 [EB] | [=DB]2 [CDA] [B,DG]2 [A,DF] |[M:11/16] E/-E/-E/-E/-E/-E-<E z | %20
[M:1/8] E |[M:3/4] [Ec][Ec] [Ec] [CA]2 [Ec] | e2 e c2 c | [GB]2 [Bd] [Ac]2 [GB] | %24
[M:5/8] [Ac]- [Ac]3 z |[M:1/8] [_Gc] |[M:3/4] [Fc][DFB] [DF] [EFc]2 [DFB] | BA E B2 A | A2 G F2 G | %29
[M:5/8] [CA]- [CA]3 z |] %30
V:2
 z3 z2 [A,,A,] | [A,,A,][A,,A,][A,,A,] [A,,A,]2 [A,,A,] | [D,A,]2 [D,A,] [D,A,]2 [D,A,] | %3
 [A,E]2 [A,CE] [G,B,E]2 [A,E] |[M:5/8] [E,G,E]- [E,G,E]3 z |[M:1/8] [B,,G,] | %6
[M:3/4] [A,,A,][A,,A,] [A,,A,] [A,,A,]2 [A,,A,] |[M:7/8] [D,A,]2 [D,A,] [D,A,]3 [D,A,] | %8
[M:3/4] [E,A,E]2 [E,CE] [E,G,E]2 [E,G,D] |[M:5/8] [A,,A,]- [A,,A,]3 z |[M:1/8] [E,B,] | %11
[M:3/4] [E,B,][E,C] [E,B,] [E,B,]2 [E,B,] | [E,=A,]2 [E,A,] [E,B,]2 [E,G,] | %13
 [B,,F,]2 [B,,B,] [B,,B,]2 [B,,B,] |[M:5/8] [E,B,]- [E,B,]3 z |[M:1/8] [E,B,] | %16
[M:3/4] [E,B,][E,C] [E,B,] [E,B,]2 [E,B,] | [E,=A,]2 [E,A,] [E,B,]2 [E,G,] | %18
 [B,,F,]2 B,, B,,2 B,, |[M:11/16] z/ z/ z A,B,3/2 z |[M:1/8] E, | %21
[M:3/4] [A,,A,][A,,A,] [A,,A,] [A,,E,]2 [A,,A,] | [A,CE]2 [A,CA] [A,EA]2 [A,EA] | %23
 [E,E]2 [E,E] [E,E]2 [E,E] |[M:5/8] [A,E]- [A,E]3 z |[M:1/8] [A,,A,] |[M:3/4] [D,A,]D, D, D,2 D, | %27
 [E,CE][E,CE] [E,C] [E,DE]2 [E,CE] | [E,B,D]2 [E,B,D] [E,A,D]2 [E,D] | %29
[M:5/8] [A,,E,]- [A,,E,]3 z |] %30
V:3
 x6 | x6 | x6 | x6 |[M:5/8] z D,[K:bass]C, z2 |[M:1/8][K:treble] x |[M:3/4] x6 |[M:7/8] x7 | %8
[M:3/4] x6 |[M:5/8] x5 |[M:1/8] x |[M:3/4] x6 | x6 | x6 |[M:5/8] x5 |[M:1/8] x |[M:3/4] x6 | x6 | %18
 x6 |[M:11/16] [G,B,]-<[G,B,]CD3/2 z |[M:1/8] x |[M:3/4] x6 | x6 | x6 |[M:5/8] x5 |[M:1/8] x | %26
[M:3/4] x6 | x6 | x6 |[M:5/8] x5 |] %30
V:4
 x6 | x6 | x6 | x6 |[M:5/8] x5 |[M:1/8] x |[M:3/4] x6 |[M:7/8] x7 |[M:3/4] x6 |[M:5/8] x5 | %10
[M:1/8] x |[M:3/4] x6 | x6 | x6 |[M:5/8] x5 |[M:1/8] x |[M:3/4] x6 | x6 | x6 | %19
[M:11/16] E,/-E,/-E,/-E,/-E,/-E,-<E, z |[M:1/8] x |[M:3/4] x6 | x6 | x6 |[M:5/8] x5 |[M:1/8] x | %26
[M:3/4] x6 | x6 | x6 |[M:5/8] x5 |] %30

